UI/data/themes/Dark/locked.svg

<?xml version="1.0" encoding="UTF-8"?>
<svg xmlns="http://www.w3.org/2000/svg" height="16px" viewBox="0 0 16 16" width="16px"><path d="m 8 1 c -2.199219 0 -4 1.800781 -4 4 v 2 c -1.109375 0 -2 0.890625 -2 2 v 5 c 0 0.554688 0.445312 1 1 1 h 10 c 0.554688 0 1 -0.445312 1 -1 v -5 c 0 -1.109375 -0.890625 -2 -2 -2 v -2 c 0 -2.199219 -1.800781 -4 -4 -4 z m 0 2 c 1.125 0 2 0.875 2 2 v 2 h -4 v -2 c 0 -1.125 0.875 -2 2 -2 z m 0 0" fill="#fefefe"/></svg>

<?xml version="1.0" encoding="UTF-8"?>
<svg xmlns="http://www.w3.org/2000/svg" xmlns:xlink="http://www.w3.org/1999/xlink" width="16pt" height="16pt" viewBox="0 0 16 16" version="1.1">
<g id="surface1">
<path style=" stroke:none;fill-rule:nonzero;fill:rgb(82.352941%,82.352941%,82.352941%);fill-opacity:1;" d="M 8 1 C 5.800781 1 4 2.800781 4 5 L 4 7 L 2 7 L 2 15 L 14 15 L 14 7 L 12 7 L 12 5 C 12 2.800781 10.199219 1 8 1 Z M 8 3 C 9.121094 3 10 3.878906 10 5 L 10 7 L 6 7 L 6 5 C 6 3.878906 6.878906 3 8 3 Z M 8 3 "/>
</g>
</svg>
